X: 072
Q: "slow"
M: C
L: 1/8
K: Gdor
V: 1
d2(G>A) G2c>B | A>cG>A F2fg | (a>gf)d (f>dTc)A | d2(G>A) G2 :|
|: TAG |\
a2b>a g2ag | f>gfd (cd)f>g | (a>gf)d (f>dTc)A | d2(G>A) G2 :|
V: 2 clef=bass middle=d
f2 |\
|: c'2 |\
d'c'd'b "6"aga"6"e | f2zb "6"agaf | b2"6"B2 cd"6"ef | g3"6"a bc'"6"d'"6"e' | f'2"6"d'2
e'2"6"c'2 | d'3b "6"a3"6"e | fg"6"ab "6"a2zf | B2"6"b2 c'2 :|

